X:827
T:The Four Courts
R:reel
H:See also #828, "O'Rourke's Reel" #245
D:L\'unasa: The Kinnitty Sessions
Z:id:hn-reel-827
M:C|
L:1/8
K:Amix
eA~A2 eAfA | eA~A2 d2cd | eA~A2 ~f3e |1 df~f2 dfaf :|2 df~f2 d2cA ||
B2gB aBgB | ~B2ge d2cA | ~B3g aBgB | fage d2cA | 
~B3g aBgB | ~B2ge d2 (3Bcd | ea~a2 agea | agec d2cd || ~e3A ~f3d |
~e3c d2cd |1 ~e3A ~f3e | df~f2 dfaf :|2 ea~a2 agea | agec d2cd ||
